X: 269
M:3/2
L:1/8
K:GMin
f2B4b2g2e2 | cdec f2B2A4 | Bcde fBAB gBAB | babg afg=ef2 |
f2_a4gf gede | g2b4ag af=ef | b2fdg2ecf2dB | AFED ECDA,B,4 ||

